symbols/web/bed/materialsymbolsoutlined/bed_wght300grad200_20px.svg

<svg xmlns="http://www.w3.org/2000/svg" height="20" width="20"><path d="M1.417 16.292v-5.167q0-.542.218-1.021.219-.479.615-.854V6.792q0-1.104.812-1.886.813-.781 1.917-.781h3.25q.479 0 .948.177t.823.469q.354-.292.833-.469t.959-.177H15q1.104 0 1.927.781.823.782.823 1.886V9.25q.396.375.615.854.218.479.218 1.021v5.167h-1.875v-1.646H3.292v1.646Zm9.541-7.854h4.917V6.812q0-.354-.26-.583Q15.354 6 15 6h-3.208q-.354 0-.594.229t-.24.563Zm-6.833 0h4.917V6.812q0-.354-.23-.583Q8.583 6 8.229 6h-3.25q-.354 0-.604.229t-.25.563Zm-.833 4.333h13.416v-1.604q0-.355-.229-.605t-.583-.25H4.125q-.354 0-.594.25-.239.25-.239.605Zm13.416 0H3.292h13.416Z"/></svg>

<svg xmlns="http://www.w3.org/2000/svg" height="20" width="20"><path d="M1.417 16.292V11.125Q1.417 10.583 1.635 10.104Q1.854 9.625 2.25 9.25V6.792Q2.25 5.688 3.062 4.906Q3.875 4.125 4.979 4.125H8.229Q8.708 4.125 9.177 4.302Q9.646 4.479 10 4.771Q10.354 4.479 10.833 4.302Q11.312 4.125 11.792 4.125H15Q16.104 4.125 16.927 4.906Q17.75 5.688 17.75 6.792V9.25Q18.146 9.625 18.365 10.104Q18.583 10.583 18.583 11.125V16.292H16.708V14.646H3.292V16.292ZM10.958 8.438H15.875V6.812Q15.875 6.458 15.615 6.229Q15.354 6 15 6H11.792Q11.438 6 11.198 6.229Q10.958 6.458 10.958 6.792ZM4.125 8.438H9.042V6.812Q9.042 6.458 8.812 6.229Q8.583 6 8.229 6H4.979Q4.625 6 4.375 6.229Q4.125 6.458 4.125 6.792ZM3.292 12.771H16.708V11.167Q16.708 10.812 16.479 10.562Q16.25 10.312 15.896 10.312H4.125Q3.771 10.312 3.531 10.562Q3.292 10.812 3.292 11.167ZM16.708 12.771H3.292Q3.292 12.771 3.531 12.771Q3.771 12.771 4.125 12.771H15.896Q16.25 12.771 16.479 12.771Q16.708 12.771 16.708 12.771Z"/></svg>
